toolkits/global/packages/global-context/img/icons/upload.svg

<svg height="24" viewBox="0 0 24 24" width="24" xmlns="http://www.w3.org/2000/svg"><path d="m13.0046024 3c.5497429 0 1.3179837.32258606 1.707238.71184039l4.5763192 4.57631922c.3931386.39313859.7118404 1.16760135.7118404 1.71431369v8.9889965c0 1.1092806-.8945138 2.0085302-1.9940603 2.0085302h-12.01187942c-1.10128908 0-1.99406028-.8926228-1.99406028-1.9950893v-14.00982141c0-1.10185739.88743329-1.99508929 1.99961498-1.99508929zm0 1h-7.00498742c-.55709576 0-.99961498.44271433-.99961498.99508929v14.00982141c0 .5500396.44491393.9950893.99406028.9950893h12.01187942c.5463747 0 .9940603-.4506622.9940603-1.0085302v-8.9889965c0-.28393445-.2150684-.8033281-.4189472-1.00720691l-4.5763192-4.57631922c-.2038461-.20384606-.718603-.41894717-1.0001312-.41894717zm-1.8557694 4.14572769c.1948338-.19483375.5117783-.19377714.7055688.00001334l2.5909908 2.59099077c.1948411.1948411.1904373.5151448.0027906.7027914-.1932998.1932999-.5046517.1923709-.7001856-.0069285l-1.7463869-1.78001757v6.14827687c0 .2717771-.2319336.492096-.5.492096-.2761423 0-.5-.216372-.5-.492096v-6.14827641l-1.74627889 1.77990921c-.1933927.1971171-.51252214.1945584-.70016883.0069117-.19329987-.1932999-.19100584-.5089949.00277731-.7027781z" fill="#666" fill-rule="evenodd"/></svg>

<?xml version="1.0" encoding="UTF-8"?>
<svg width="24px" height="24px" viewBox="0 0 24 24" version="1.1" xmlns="http://www.w3.org/2000/svg" xmlns:xlink="http://www.w3.org/1999/xlink">
    <!-- Generator: Sketch 63.1 (92452) - https://sketch.com -->
    <title>icon-icon / upload</title>
    <desc>Created with Sketch.</desc>
    <g id="icon-/-upload" stroke="none" stroke-width="1" fill="none" fill-rule="evenodd">
        <path d="M13.0046024,3 C13.5543453,3 14.3225861,3.32258606 14.7118404,3.71184039 L19.2881596,8.28815961 C19.6812982,8.6812982 20,9.45576096 20,10.0024733 L20,18.9914698 C20,20.1007504 19.1054862,21 18.0059397,21 L5.99406028,21 C4.8927712,21 4,20.1073772 4,19.0049107 L4,4.99508929 C4,3.8932319 4.88743329,3 5.99961498,3 L13.0046024,3 Z M13.0046024,4 L5.99961498,4 C5.44251922,4 5,4.44271433 5,4.99508929 L5,19.0049107 C5,19.5549503 5.44491393,20 5.99406028,20 L18.0059397,20 C18.5523144,20 19,19.5493378 19,18.9914698 L19,10.0024733 C19,9.71853885 18.7849316,9.1991452 18.5810528,8.99526639 L14.0047336,4.41894717 C13.8008875,4.21510111 13.2861306,4 13.0046024,4 Z M11.148833,8.14572769 C11.3436668,7.95089394 11.6606113,7.95195055 11.8544018,8.14574103 L11.8544018,8.14574103 L14.4453926,10.7367318 C14.6402337,10.9315729 14.6358299,11.2518766 14.4481832,11.4395232 C14.2548834,11.6328231 13.9435315,11.6318941 13.7479976,11.4325947 L13.7479976,11.4325947 L12.0016107,9.65257713 L12.0016107,15.800854 C12.0016107,16.0726311 11.7696771,16.29295 11.5016107,16.29295 C11.2254684,16.29295 11.0016107,16.076578 11.0016107,15.800854 L11.0016107,15.800854 L11.0016107,9.65257759 L9.25533181,11.4324868 C9.06193911,11.6296039 8.74280967,11.6270452 8.55516298,11.4393985 C8.36186311,11.2460986 8.36415714,10.9304036 8.55794029,10.7366204 L8.55794029,10.7366204 Z" id="upload" fill="#666666"></path>
    </g>
</svg>
